X:161
T:Nigger Quadrilles #4. Le4.161, The
Q:1/4=100
L:1/8
B:L.Leadley MS#4 c1850
Z:vmp.Mike Hicken 2016 www.village-music-project.org.uk
N: * This note is not clear in the original.
M:2/4
K:D
!p!D|BBAD|BBAD|BBAF|EF D2|BBAD|BBAD|BBAF|EF D2 !fermata!||
f>fef|a3b|a>f ef|d3z|ffef|aa dd/e/|ff/g/ ee/f/|d<d "*"a2|
!f! d'2 d'>c'|e'd'ba|b/a/b/a/ fa|ef d2|d'2 d'>c'|e'd'ba|b/a/b/a/ fa|ef d2|
B/G/B/d/ A/F/A/c/|B/G/B/d/ A2|B/G/B/d/ A/F/A/d/|EF D2|
B/G/B/d/ A/F/A/d/|B/G/B/d/ A2|B/G/B/d/ A/F/A/d/|EFD "_D.C."|]

